image/iconmonstr-email-5.svg

<svg xmlns="http://www.w3.org/2000/svg" width="24" height="24" viewBox="0 0 24 24"><path d="M0 3v18h24v-18h-24zm22 16l-6.526-6.618-3.445 3.483-3.418-3.525-6.611 6.66 5.051-8-5.051-6 10.029 7.446 9.971-7.446-4.998 6.01 4.998 7.99z"/></svg>

<svg width="24" height="24" viewBox="0 0 24 24" fill="none" xmlns="http://www.w3.org/2000/svg">
<path d="M0 3V21H24V3H0ZM22 19L15.474 12.382L12.029 15.865L8.611 12.34L2 19L7.051 11L2 5L12.029 12.446L22 5L17.002 11.01L22 19Z" fill="white" fill-opacity="0.75"/>
</svg>
